X:499
T:Brafferton Village
M:3/4
L:1/8
K:G
D2 | B3 A G2 | B2 c2 d2 | e3 c e2 | d4 c2 |
B3 A G2 | D2 G2 B2 | B3 A G2 | A4 D2 |
B3 A G2 | B2 c2 d2 | e2 f2 g2 | d4 c2 |
B3 c d2 | B2 A2 G2 | D3 A F2 | G4 :||
g2 | e4 c2 | e2 f2 g2 | d3 e c2 | B4 G2 |
E2 G2 c2 | D2 G2 B2 | d2 g2 B2 | A4 g2 |
e3 c G2 | d2 B2 G2 | e2 f2 g2 | d4 c2 |
B3 c d2 | B2 A2 G2 | D3 A F2 | G4 :||
